!!!COM: Beethoven, Ludwig van
!!!CDT: 1770///-1827///
!!!ODT: 1809///
!!!OTL: String Quartet No. 10 in E-flat Major, Op. 74
!!!OPS: Op. 74
!!!OMV: Mvmt. 2
!!!OMD: Adagio ma non troppo
!!!PDT: 1810///
!!!PPP: Leipzig and London
!!!ODE: Prince Lobkowitz
**kern	**dynam	**kern	**dynam	**kern	**dynam	**kern	**dynam
*staff4	*staff4	*staff3	*staff3	*staff2	*staff2	*staff1	*staff1
*Icello	*Icello	*Iviola	*Iviola	*Ivioln	*Ivioln	*Ivioln	*Ivioln
*clefF4	*clefF4	*clefC3	*clefC3	*clefG2	*clefG2	*clefG2	*clefG2
*k[b-e-a-d-]	*k[b-e-a-d-]	*k[b-e-a-d-]	*k[b-e-a-d-]	*k[b-e-a-d-]	*k[b-e-a-d-]	*k[b-e-a-d-]	*k[b-e-a-d-]
*A-:	*A-:	*A-:	*A-:	*A-:	*A-:	*A-:	*A-:
*M3/8	*M3/8	*M3/8	*M3/8	*M3/8	*M3/8	*M3/8	*M3/8
*MM60	*MM60	*MM60	*MM60	*MM60	*MM60	*MM60	*MM60
=1-	=1-	=1-	=1-	=1-	=1-	=1-	=1-
8r	.	8r	.	8r	.	4.r	.
(8AA-'/L	.	(8E-'/ 8A-'/L	.	(8c'/L	.	.	.
8AA-'/J)	.	8E-'/) 8A-'/J	.	8c'/J)	.	.	.
=2	=2	=2	=2	=2	=2	=2	=2
[4.AA-/	.	(8.E-/L	.	(8c/L	.	(4ccc\	.
.	.	.	.	8a-/)	.	.	.
.	.	16En/L	.	.	.	.	.
.	.	16F/	.	8a-/J	.	16ddd-\LL	.
.	.	16E-/JJ)	.	.	.	16ccc\JJ)	.
=3	=3	=3	=3	=3	=3	=3	=3
4.AA-/]	.	(8Dn/L	.	(8f/L	.	(8ccc\L	.
.	.	8D-/	.	8G/ 8f-/	.	8bb-\	.
.	.	8C/J)	.	8A-/) 8e-/J	.	8ccc\J	.
=4	=4	=4	=4	=4	=4	=4	=4
(16FF/LL	.	(16A-/LL	.	(16d-/LL	.	8ddd-\L	.
16GG/JJ	.	16E-/JJ)	.	16B-/JJ	.	.	.
8AA-/L	.	(8E-/L	.	8c/L	.	8.ccc\	.
8C/J)	.	8e-/J)	.	8A-/J)	.	.	.
.	.	.	.	.	.	16eee-\Jk)	.
=5	=5	=5	=5	=5	=5	=5	=5
8E-\	.	(8B-\	.	8G/	.	4bb-\	.
8r	.	4G/)	.	8r	.	.	.
8E-\	.	.	.	8e-/	.	(8bb-\	.
=6	=6	=6	=6	=6	=6	=6	=6
4.AA-/	.	(8A-/L	.	(8e-/L	.	8ccc\L	.
.	.	8E-/	.	8c/	.	8aa-\	.
.	.	8e-/J	.	8a-/J)	.	8ccc\J	.
=7	=7	=7	=7	=7	=7	=7	=7
(4GG/	<	8en/L	.	(4b-/	<	8ddd-\L	<
.	.	8En/	.	.	.	8bb-\	.
8FF/	.	8F/J	.	8a-/	.	8ddd-\J	.
=8	=8	=8	=8	=8	=8	=8	=8
8EEn/L	>	8G/L	>	8g/L	>	8.ccc\L)	f
16FF/L	.	16A-/L	.	16c/L	.	.	.
16AA-/	.	16c/	.	16f/	.	(16aa-\L	.
16BB-/)	.	16B-/	.	16e-/	.	16gg\	.
16BB-/JJ	.	16A-/JJ)	.	16dn/JJ)	.	16ff\JJ)	.
=9	=9	=9	=9	=9	=9	=9	=9
(8EE-/L	.	(8A-/L	.	(8dn/L	.	(8ff\L	.
16E-/Jk)	.	16G/Jk)	.	16B-/Jk)	.	8ee-\J)	.
16r	.	16r	.	16r	.	.	.
8r	.	8r	.	(16g/LL	.	(16b-/LL	.
.	.	.	.	16f/JJ	.	16a-/JJ	.
=10	=10	=10	=10	=10	=10	=10	=10
4.r	.	(8d-\L	.	8e-/L	.	8g/L	.
.	.	8c\	.	8f/	.	8a-/	.
.	.	8B-\J)	.	8g/J	.	8b-/J	.
=11	=11	=11	=11	=11	=11	=11	=11
8r	.	[4.A-/	.	4a-/)	.	4cc\)	.
8r	.	.	.	.	.	.	.
(16E-\LL	.	.	.	(16cc\LL	.	(16ee-\LL	.
16F\JJ	.	.	.	16b-\JJ	.	16dd-\JJ	.
=12	=12	=12	=12	=12	=12	=12	=12
8G-\L	.	(8A-\L]	.	8a-\L	.	8cc\L	.
8F\	.	8a-\	.	8b-\	.	8dd-\	.
8E-\J)	<	8A-\ 8g-\J)	<	8cc\J	<	8ee-\J	<
=13	=13	=13	=13	=13	=13	=13	=13
4D-\	.	4A-\ 4f\	.	4dd-\)	.	4ff\)	.
(16C\LL	.	(16A-\LL	.	(16ee-\LL	.	(16gg-\LL	.
16D-\JJ)	.	16f\JJ)	.	16dd-\JJ)	.	16ff\JJ)	.
=14	=14	=14	=14	=14	=14	=14	=14
4AAn/	.	4f\	.	(8dd-\L	.	(8ff\L	.
.	.	.	.	8cc\J)	.	(8ee-\J)	.
(16FF/LL	.	(16F/LL	.	(16dd-\LL	.	16ff\LL	.
16AA/JJ)	.	16f/JJ)	.	16cc\JJ)	.	16ee-\JJ)	.
=15	=15	=15	=15	=15	=15	=15	=15
8.BB-/L	.	8.f\L	.	(8cc/L	.	(8ee-\L	.
.	.	.	.	16b-/L	.	16dd-\L	.
(16BB-/L	.	16d-\L	.	16f/)	.	16ff\)	.
16BB-/	.	(16d-\	.	(16f/	.	(16ff\	.
16C/JJ	.	16c\JJ)	.	16an/JJ)	.	16ee-\JJ)	.
=16	=16	=16	=16	=16	=16	=16	=16
8D-/L)	.	8B-\L	.	8b-/L	.	(16ee-\LL	.
.	.	.	.	.	.	16dd-\	.
8.DD-/	.	(8.d-\	.	[8.B-/ 8.f/	.	16cc\	.
.	.	.	.	.	.	16b-\JJ	.
.	.	.	.	.	.	16ggn\LL	.
16DD-/Jk	.	16e-\Jk)	.	16B-/] 16g/Jk	.	32ff\L	.
.	.	.	.	.	.	32g\JJJ	.
=17	=17	=17	=17	=17	=17	=17	=17
(16CC/LL	.	(16e-\LL	.	(16A-/ 16a-/LL	.	16a-\LL	.
16FF/JJ)	.	16A-\JJ)	.	16d-/JJ)	.	32ee-\L	.
.	.	.	.	.	.	32dd-\JJJ)	.
8EE-/L	f	(8A-\L	f	(8e-/L	f	(8cc\L	f
8EE-/J	>	8e-\J)	.	8g/J)	>	8b-\J)	.
=18	=18	=18	=18	=18	=18	=18	=18
8AA-/	p	(8c/L	p	8e-/	p	(8a-/L	p
[4AA-/	.	8A-/	.	[4d-/	.	8.f/	.
.	.	[8B-/J	.	.	.	.	.
.	.	.	.	.	.	16b-/Jk)	.
=19	=19	=19	=19	=19	=19	=19	=19
8AA-/L]	.	(8B-/L])	.	(8d-/L]	.	(8a-/L	.
8AA-/	.	8E-/	.	8G/	.	8g/	.
8AA-/J	.	16F/L	.	16A-/L	.	16f/L	.
.	.	(16G/JJ)	.	16B-/JJ)	.	16e-/JJ)	.
=20	=20	=20	=20	=20	=20	=20	=20
8AA-/	.	16A-/LL	.	(16c/LL	.	(16e-/LL	.
.	.	16C/JJ	.	[16A-/JJ)	.	&(16a-/JJ&))	.
[4AA-/	.	[4D-/)	.	16A-/LL]	.	(8.f/L	.
.	.	.	.	16An/J	.	.	.
.	.	.	.	[8B-/J	.	.	.
.	.	.	.	.	.	32cc/LL	.
.	.	.	.	.	.	(32b-/JJJ)	.
=21	=21	=21	=21	=21	=21	=21	=21
8AA-/L]	.	(8D-/L]	.	8.B-/L]	.	8a-/L	.
8AA-/	.	8E-/	.	.	.	8g/	.
.	.	.	.	(16G/L	.	.	.
8AA-/J	.	16F/L	.	16A-/	.	16f/L	.
.	.	16G/JJ)	.	16B-/JJ)	.	16e-/JJ)	.
=22	=22	=22	=22	=22	=22	=22	=22
(8AA-/L	.	(4A-/	.	(8c/L	.	(8e-/L	.
8DD-/	.	.	.	8B-/)	.	8f/	.
8EE-/J)	.	32G/LLL	.	8B-/J	.	8g/J)	.
.	.	32F/	.	.	.	.	.
.	.	32E-/	.	.	.	.	.
.	.	32D-/JJJ)	.	.	.	.	.
=23	=23	=23	=23	=23	=23	=23	=23
4.EE-/	>	4.D-/	>	4B-/	>	4.b-/)	>
.	.	.	.	32G/LLL	.	.	.
.	.	.	.	32B-/	.	.	.
.	.	.	.	32e-/	.	.	.
.	.	.	.	32G/JJJ	.	.	.
=24	=24	=24	=24	=24	=24	=24	=24
8AA-/	p	8C/	p	8A-/	.	4a-/	p
[4A-\	.	8r	.	8r	.	.	.
.	.	[8c-\	.	8r	.	8r	.
=25	=25	=25	=25	=25	=25	=25	=25
8A-\]	.	8c-\]	.	8e-/	.	(8ee-\L	.
[4A-\	.	[4c-\	.	[4e-/	.	8cc-\)	.
.	.	.	.	.	.	(16ee-'\L	.
.	.	.	.	.	.	16cc-'\JJ)	.
=26	=26	=26	=26	=26	=26	=26	=26
8A-\]	.	8c-\]	.	8e-/]	.	(8b-\L	.
[4A-\	.	[4c-\	.	[4e-/	.	8a-\J)	.
.	.	.	.	.	.	(16a-'\LL	.
.	.	.	.	.	.	16cc-'\JJ)	.
=27	=27	=27	=27	=27	=27	=27	=27
8A-\]	.	8c-\]	.	8e-/]	.	8ee-\L	.
[4A-\	.	[4c-\	.	[4e-/	.	8aa-\J	.
.	.	.	.	.	.	(16ccc-'\LL	.
.	.	.	.	.	.	16aa-'\JJ)	.
=28	=28	=28	=28	=28	=28	=28	=28
(8A-\L]	.	(8c-\L]	.	(8e-/L]	.	8aa-\L	.
8E-\)	.	8B-\)	.	8g/)	.	8gg\J)	.
8E-\J	.	(8B-\J	.	[8g-/J	.	[8bb-\	.
=29	=29	=29	=29	=29	=29	=29	=29
8F-\	.	(8d-\)	.	(8g-/]	.	4bb-\]	.
4F-\	.	4G-/)	.	4d-/)	.	.	.
.	.	.	.	.	.	8gg-\	.
=30	=30	=30	=30	=30	=30	=30	=30
8E-\	.	8G-/	.	8c-/	.	8ccc-\L	.
[16EE-/LL	f	[16G-/LL	f	[16c-/LL	.	[16cc-\L	f
16EE-/JJ]	.	16G-/JJ]	.	16c-/JJ]	.	16cc-\JJ]	.
[16EE-/LL	.	[16G-/LL	.	[16c-/LL	.	[16b--\LL	.
16EE-/JJ]	.	16G-/JJ]	.	16c-/JJ]	.	16b--\JJ]	.
=31	=31	=31	=31	=31	=31	=31	=31
4FF-/	.	4F-/	.	4c-/	.	4a--/	.
[8GG-/	.	[8Dn/	.	[8c-/	.	[8g-/	.
=32	=32	=32	=32	=32	=32	=32	=32
8GG-/]	.	8D/]	.	8c-/]	.	8g-/]	.
[4GGn/	.	[4Dn/	.	[4c-/	.	[4f/	.
=33	=33	=33	=33	=33	=33	=33	=33
8GG/]	.	8D/]	.	8c-/]	.	8f/]	.
[4AA-/	.	[4D-/	.	[4c-/	.	[4f/	.
=34	=34	=34	=34	=34	=34	=34	=34
8AA-/L]	p	(8D-/L]	p	8c-/L]	.	8f/L]	p
8GG-/	.	8E-/	.	(8c-/	.	(8g-/	.
8GG-/J	.	8F-/J)	.	8B-/J)	.	16a-/L	.
.	.	.	.	.	.	16g-/JJ)	.
=35	=35	=35	=35	=35	=35	=35	=35
8C-/	.	8E-/	.	8c-/	.	4c-/	.
8r	.	4e-\	.	8r	.	.	.
8r	.	.	.	8g-/	.	8cc-\	.
=36	=36	=36	=36	=36	=36	=36	=36
8r	.	4f-\	.	4gn/	.	[8b-\L	.
4c-\	.	.	.	.	.	(16b-\L]	.
.	.	.	.	.	.	16ff-\)	.
.	.	8f-\	.	8g-/	.	(16dd-'\	.
.	.	.	.	.	.	16b-'\JJ)	.
=37	=37	=37	=37	=37	=37	=37	=37
4c-\	.	8e-\	.	8g-/	.	(8dd-\L	.
.	.	(16E-/LL	.	8r	.	8cc-\J)	.
.	.	&([16G-/JJ&)	.	.	.	.	.
8r	.	8G-/])	.	(16c-/LL	.	(8c-/	.
.	.	.	.	16e-/JJ)	.	.	.
=38	=38	=38	=38	=38	=38	=38	=38
8r	.	8Gn/	.	4.f-/	.	[8B-/)	.
8C-/L	.	[4G-/	.	.	.	(16B-/LL]	.
.	.	.	.	.	.	16f-/)	.
8C-/J	.	.	.	.	.	(16d-'/	.
.	.	.	.	.	.	16B-'/JJ)	.
=39	=39	=39	=39	=39	=39	=39	=39
4.C-/	.	8G-/]	.	8e-/	.	8c-/L	.
.	.	[4G/	.	8r	.	8.cc-/	.
.	.	.	.	[8e-/	.	.	.
.	.	.	.	.	.	[16b--/Jk	.
=40	=40	=40	=40	=40	=40	=40	=40
4.Cn/	.	8G/]	.	4e-/]	.	4b--\_	.
.	.	[4G/	.	.	.	.	.
.	.	.	.	[8e-/	.	(16b--\LL]	.
.	.	.	.	.	.	16a-\JJ)	.
=41	=41	=41	=41	=41	=41	=41	=41
4.C/	.	8G/]	.	4e-/]	.	4a-/	.
.	.	4E-/	.	.	.	.	.
.	.	.	.	[8A-/	.	8a-/	.
=42	=42	=42	=42	=42	=42	=42	=42
8D-\	.	8F-/	.	8A-/]	.	(8.a-/L	.
[4D-\	.	[4F-/	.	[4A-/	.	.	.
.	.	.	.	.	.	(16f-/L)	.
.	.	.	.	.	.	16a-'/	.
.	.	.	.	.	.	16f-'/JJ)	.
=43	=43	=43	=43	=43	=43	=43	=43
8D-\]	.	8F-/]	.	8A-/]	.	(8e-/L	.
[4D-\	.	[4A-/	.	[4f-/	.	8d-/J)	.
.	.	.	.	.	.	(16d-'/LL	.
.	.	.	.	.	.	16f-'/JJ)	.
=44	=44	=44	=44	=44	=44	=44	=44
8D-\L]	.	8A-/]	.	8f-/]	.	(8a-\L	.
8GGn\	.	[4B-/	.	[4f-/	.	8dd-\)	.
[8Gn\J	.	.	.	.	.	(16ff-'\L	.
.	.	.	.	.	.	16dd-'\JJ)	.
=45	=45	=45	=45	=45	=45	=45	=45
8G\]	.	8B-/]	.	8f-/]	.	(8cc-\L	.
[4G\	.	[4B-/	.	[4d-/	.	&(8b-\J&))	.
.	.	.	.	.	.	(16ff-'\LL	.
.	.	.	.	.	.	16dd-'\JJ)	.
=46	=46	=46	=46	=46	=46	=46	=46
8G\L]	.	8B-/L]	.	8d-/L]	.	(8cc-\L	.
8G\	.	8E-/ 8B-/	.	8d-/	.	8b-\J)	.
[8GG\J	.	[8E-/ [8B-/J	.	[8d-/J	.	(16dd-'\LL	.
.	.	.	.	.	.	16b-'\JJ)	.
=47	=47	=47	=47	=47	=47	=47	=47
(8GG/L]	.	8E-/] 8B-/]	.	8d-/]	.	(8dd-\L	.
8AA-/	.	[4E-/ [4A-/	.	[4c-/	.	8cc-\J)	.
[8EE-/J)	.	.	.	.	.	(16ee-'\LL	.
.	.	.	.	.	.	16cc-'\JJ)	.
=48	=48	=48	=48	=48	=48	=48	=48
(8EE-/L]	.	8E-/] 8A-/L]	.	8c-/L]	.	(8b-\L	.
8FF/	.	8A-/	.	8dn/	.	8a-\J)	.
8FF-/J)	.	8A-/J	.	8d/J	.	(16cc-'\LL	.
.	.	.	.	.	.	16a-'\JJ)	.
=49	=49	=49	=49	=49	=49	=49	=49
8EE-/	p	8B-/	p	8e-/	p	(8f/	p
8r	.	8r	.	8r	.	4g/) 4b-/	.
(16f-'\LL	.	8r	.	8r	.	.	.
16d-'\JJ)	.	.	.	.	.	.	.
=50	=50	=50	=50	=50	=50	=50	=50
(8c-\L	.	8r	.	8r	.	4.r	.
8B-\J)	.	8r	.	8r	.	.	.
8r	.	(16d-'\LL	.	(16ff-'\LL	.	.	.
.	.	16B-'\JJ)	.	16dd-'\JJ)	.	.	.
=51	=51	=51	=51	=51	=51	=51	=51
8r	.	(8A-/L	.	(8cc-'\L	.	8r	.
8r	.	8G/J)	.	8b-'\J)	.	8r	.
(16fn'\LL	.	8r	.	8r	.	[8g/ [8b-/	.
16d-'\JJ)	.	.	.	.	.	.	.
=52	=52	=52	=52	=52	=52	=52	=52
(8cn\L	.	8r	.	8r	.	16g\] 16b-\LL]	.
.	.	.	.	.	.	(16ccn'\	.
8B-\J)	.	8r	.	8r	.	16dd-'\	.
.	.	.	.	.	.	16ee-'\JJ)	.
8r	.	(16d-'/LL	.	(16ffn'\LL	.	[8ff\	.
.	.	16B-'/JJ)	.	16dd-'\JJ)	.	.	.
=53	=53	=53	=53	=53	=53	=53	=53
8r	.	(8A-/L	.	(8ccn\L	.	16ff\LL]	.
.	.	.	.	.	.	16ff\	.
8r	.	8G/J)	.	8b-\J)	.	(16ff\	.
.	.	.	.	.	.	16ee-\JJ)	.
8E-\	.	8G/	.	8B-/ 8e-/	.	16ee-'\LL	.
.	.	.	.	.	.	16b-'\JJ	.
=54	=54	=54	=54	=54	=54	=54	=54
4AA-/	.	4E-/ 4A-/	.	4c/ 4e-/	.	4cc\	.
8F\	.	8An/	.	8c/ 8f/	.	16ff'\LL	.
.	.	.	.	.	.	16cc'\JJ	.
=55	=55	=55	=55	=55	=55	=55	=55
4BB-/	.	4F/ 4B-/	.	4d-/ 4f/	.	4dd-\	.
8F\	.	8An/	.	8c/ 8f/	.	16ff'\LL	.
.	.	.	.	.	.	16cc'\JJ	.
=56	=56	=56	=56	=56	=56	=56	=56
4BB-/	.	4F/ 4B-/	.	4d-'/ 4f'/	.	4dd-\	.
(8BB-/	.	(8B-/	.	(8f/	.	(8dd-\	.
=57	=57	=57	=57	=57	=57	=57	=57
4C/)	.	4G/)	.	4en/)	.	4cc\)	.
8C/	.	8G/	.	8e/	.	8cc\	.
=58	=58	=58	=58	=58	=58	=58	=58
8r	.	8r	.	8r	.	8r	.
8D-\	p	8F/	.	8B-/ 8f/	.	8b-\	.
8r	.	8r	.	8r	.	8r	.
=59	=59	=59	=59	=59	=59	=59	=59
8r	.	8r	.	8r	.	8r	.
8D-\	.	8F/ 8A-/	.	8B-/ 8f/	.	8b-\	.
8r	.	8r	.	8r	.	8r	.
=60	=60	=60	=60	=60	=60	=60	=60
8r	.	8r	.	8r	.	8r	.
8Dn\	.	8F/ 8A-/	.	8B-/ 8f/	.	8b-\	.
8r	.	8r	.	8r	.	8r	.
=61	=61	=61	=61	=61	=61	=61	=61
8r	.	8r	.	8r	.	8r	.
8E-\	.	8A-/	.	8B-/ 8e-/	.	[8b-\L	.
8r	.	8r	.	8r	.	(32b-\LL]	.
.	.	.	.	.	.	32cc\	.
.	.	.	.	.	.	32dd-\	.
.	.	.	.	.	.	32b-\JJJ	.
=62	=62	=62	=62	=62	=62	=62	=62
8r	.	8r	.	8r	.	32g\LLL	.
.	.	.	.	.	.	32a-\	.
.	.	.	.	.	.	32b-\	.
.	.	.	.	.	.	32g\JJJ	.
16e-\	pp	16b-\	pp	16dd-\	pp	32f\LLL	.
.	.	.	.	.	.	32e-\	.
16r	.	16r	.	16r	.	32g\	.
.	.	.	.	.	.	32e-\JJJ	.
8r	.	8r	.	8r	.	32b-\LLL	.
.	.	.	.	.	.	32g\	.
.	.	.	.	.	.	32dd-\	.
.	.	.	.	.	.	32b-\JJJ	.
=63	=63	=63	=63	=63	=63	=63	=63
4.r	.	4.r	.	4.r	.	(16ff'\LL)	.
.	.	.	.	.	.	16ee-'\JJ)	.
.	.	.	.	.	.	(8.ddn\L	.
.	.	.	.	.	.	16dd-\Jk)	.
=64	=64	=64	=64	=64	=64	=64	=64
(24AA-\LL	p	8r	.	8r	.	(4cc\	.
24C\	.	.	.	.	.	.	.
24E-\JJ)	.	.	.	.	.	.	.
(8A-\L	.	(24A-\LL	p	8r	.	.	.
.	.	24c\	.	.	.	.	.
.	.	24en\JJ	.	.	.	.	.
8AA-\J)	.	24f\LL	.	(24d-/LL	p	24ee-\LL	.
.	.	24a-\	.	24f/	.	24dd-\	.
.	.	(24e-\JJ)	.	24a-/JJ)	.	&(24cc\JJ&))	.
=65	=65	=65	=65	=65	=65	=65	=65
(24AA-\LL	.	16dn/LL	.	(8f/L	.	(8cc\L	.
24Dn\	.	.	.	.	.	.	.
.	.	16Dn/JJ)	.	.	.	.	.
24F\JJ)	.	.	.	.	.	.	.
(8A-\L	.	(24D-/LL	.	16g/L	.	8b-\	.
.	.	24En/	.	.	.	.	.
.	.	.	.	16d-/JJ	.	.	.
.	.	24G/JJ	.	.	.	.	.
8AA-\J)	.	24A-\LL	.	24c/LL	.	8cc\J)	.
.	.	24c\	.	24e-/	.	.	.
.	.	24e-\JJ)	.	24a-/JJ)	.	.	.
=66	=66	=66	=66	=66	=66	=66	=66
(24FF/LL	.	(24A-/LL	.	(24d-/LL	.	(8dd-\L	.
24GG/	.	24En/	.	24B-/	.	.	.
24E-/JJ)	.	24E-/JJ)	.	24B-/JJ)	.	.	.
(8AA-/L	.	(24E-/LL	.	8A-/L	.	8cc\J)	.
.	.	24A-/	.	.	.	.	.
.	.	24c/JJ)	.	.	.	.	.
8C/J)	.	(16A-/LL	.	(24e-/L	.	(64ee-\LLLL	.
.	.	.	.	.	.	64gg\	.
.	.	.	.	.	.	64aa-\	.
.	.	.	.	24a-/	.	.	.
.	.	.	.	.	.	64gg\	.
.	.	16E-/JJ)	.	.	.	64ff\	.
.	.	.	.	.	.	64ee-\	.
.	.	.	.	24cc/JJ)	.	.	.
.	.	.	.	.	.	64dd-\	.
.	.	.	.	.	.	64cc\JJJJ)	.
=67	=67	=67	=67	=67	=67	=67	=67
(24EE-/LL	.	8G/	.	8g/	.	4b-\	.
24BB-/	.	.	.	.	.	.	.
24Dn/JJ)	.	.	.	.	.	.	.
4E-\	.	(24G/LL	.	8r	.	.	.
.	.	24B-/	.	.	.	.	.
.	.	24dn/JJ)	.	.	.	.	.
.	.	(16e-/LL	.	(24d-/LL	.	(8b-\	.
.	.	.	.	24g/	.	.	.
.	.	16G/JJ)	.	.	.	.	.
.	.	.	.	24b-/JJ)	.	.	.
=68	=68	=68	=68	=68	=68	=68	=68
*	*	*	*	*	*	*clefG2	*clefG2
(24AA-/LL	.	8A-/	.	(16cc/LL	.	8cc\L	.
24C/)	.	.	.	.	.	.	.
.	.	.	.	16c/JJ)	.	.	.
[24E-/JJ	.	.	.	.	.	.	.
8E-\L]	.	(24C/LL	.	8r	.	[8a-\J)	.
.	.	24E-/	.	.	.	.	.
.	.	24G/JJ)	.	.	.	.	.
8AA-\J	.	8A-/	.	(24c/LL	.	32a-\LLL]	.
.	.	.	.	.	.	(32a-\	.
.	.	.	.	24e-/	.	.	.
.	.	.	.	.	.	32b-\	.
.	.	.	.	24a-/JJ)	.	.	.
.	.	.	.	.	.	32cc\JJJ)	.
=69	=69	=69	=69	=69	=69	=69	=69
(24GG/LL	.	(8B-/	.	(16b-/LL	.	(8dd-\L	.
24D-/	.	.	.	.	.	.	.
.	.	.	.	16B-/JJ)	.	.	.
[24En/JJ)	.	.	.	.	.	.	.
8E/L]	.	24D-/LL	.	8r	.	[8b-\J)	.
.	.	24En/	.	.	.	.	.
.	.	24G/J	.	.	.	.	.
8FF/J	.	8A-/J)	.	(24d-/LL	.	32b-\LLL]	.
.	.	.	.	.	.	32bn\	.
.	.	.	.	24f/	.	.	.
.	.	.	.	.	.	32cc\	.
.	.	.	.	24a-/JJ)	.	.	.
.	.	.	.	.	.	32dd-\JJJ)	.
=70	=70	=70	=70	=70	=70	=70	=70
(24EEn/LL	>	(24G/LL	>	(24g/LL	.	[8cc\	>
24GG/	.	24B-/)	.	24c/)	>	.	.
24C/JJ)	.	24B-/JJ	.	24c/JJ	.	.	.
(24FF/LL	.	(24A-/LL	.	(24c/LL	.	(24cc\LL]	.
24GG/	.	24B-/	.	24en/	.	24b-\	.
24AA-/JJ)	.	24c/JJ	.	24f/JJ	.	24a-\JJ	.
24BB-/LL	.	24B-/LL	.	24e-/LL	.	24g/LL	.
24BB-/	.	24F/	.	24dn/	.	24a-/	.
24BB-/JJ	.	24A-/JJ)	.	(24d/JJ)	.	24f/JJ)	.
=71	=71	=71	=71	=71	=71	=71	=71
(24EE-/LL	.	(24A-/LL	.	24dn/LL	.	(8f/L	.
24BB-/	.	24B-/	.	24A-/	.	.	.
24Dn/JJ)	.	24A-/JJ	.	24B-/JJ)	.	.	.
4E-\	.	24G/LL	.	[8B-/	.	8e-/J)	.
.	.	24B-/	.	.	.	.	.
.	.	24d-/JJ	.	.	.	.	.
.	.	24e-/LL	.	24B-/LL]	.	8r	.
.	.	24G/)	.	(24B-/	.	.	.
.	.	24F/JJ	.	24A-/JJ	.	.	.
=72	=72	=72	=72	=72	=72	=72	=72
(24D-\LL	.	8E-/L	.	8G/L	.	8r	.
24G\	.	.	.	.	.	.	.
24B-\JJ)	.	.	.	.	.	.	.
(8C/L	.	(24E-/L	.	8A-/J)	.	[4e-/	.
.	.	24G/	.	.	.	.	.
.	.	24c/JJ)	.	.	.	.	.
8BB-/J)	.	8d-\	.	(24B-/LL	.	.	.
.	.	.	.	24e-/	.	.	.
.	.	.	.	24g/JJ)	.	.	.
=73	=73	=73	=73	=73	=73	=73	=73
[4AA-/	.	[4c\	.	[4a-/	.	(24e-/LL]	.
.	.	.	.	.	.	24A-/	.
.	.	.	.	.	.	24B-/JJ	.
.	.	.	.	.	.	24c/LL	.
.	.	.	.	.	.	24e-/	.
.	.	.	.	.	.	24a-/JJ	.
(24AA-/LL]	.	(24c\LL]	.	24a-/LL]	.	24cc\LL	.
24EE-/	.	24c\	.	(24e-/	.	24ee-\	.
24FF/JJ)	.	&(24B-\JJ&))	.	24d-/JJ)	.	24dd-\JJ)	.
=74	=74	=74	=74	=74	=74	=74	=74
(16GG-/LL	.	8A-/L	.	(8c/L	.	(8cc\L	.
16E-/JJ)	.	.	.	.	.	.	.
8FF/L	.	(24D-/L	.	8A-/J	.	8dd-\	.
.	.	24F/	.	.	.	.	.
.	.	24A-/JJ	.	.	.	.	.
8EE-/J	.	8G-/)	.	24c/LL	.	(8ee-\J)	.
.	.	.	.	24e-/	.	.	.
.	.	.	.	24a-/JJ)	.	.	.
=75	=75	=75	=75	=75	=75	=75	=75
(24DD-/LL	.	(8F/L	.	16a-\LK	.	[4ff\)	<
24FF/	.	.	.	.	.	.	.
.	.	.	.	[8.dd-\J	.	.	.
24AA-/JJ	.	.	.	.	.	.	.
24C\LL	.	8A-/J)	.	.	.	.	.
24D-\	.	.	.	.	.	.	.
24F\JJ	.	.	.	.	.	.	.
24A-\LL	.	(24f\LL	.	(24dd-\LL]	.	(24ff\LL]	.
24c\	.	24e-\	.	24ee-\	.	24gg-\	.
24d-\JJ)	.	24f\JJ)	.	24dd-\JJ)	.	24ff\JJ)	.
=76	=76	=76	=76	=76	=76	=76	=76
(24FF/LL	.	(16f\LK	.	(16dd-\LK	.	(16ff\LK	.
24AA-/	.	.	.	.	.	.	.
.	.	[8.An\J)	.	[8.cc\J)	.	[8.ee-\J)	.
24C/JJ	.	.	.	.	.	.	.
24E-\LL	.	.	.	.	.	.	.
24F\	.	.	.	.	.	.	.
24An\JJ	.	.	.	.	.	.	.
24c/LL)	.	24A\LL]	.	24cc\LL]	.	24ee-\LL]	.
(24FF/	.	24f\	.	(24dd-\	.	(24ff\	.
24AA-/JJ)	.	24f\JJ	.	24cc\JJ)	.	24ee-\JJ)	.
=77	=77	=77	=77	=77	=77	=77	=77
(24BB-\LL	.	(16f\LK	.	16cc\LK	.	(16ee-\LK	.
24D-\	.	.	.	.	.	.	.
.	.	[8.F\J)	.	8.b-\J	.	[8.dd-\J)	.
24F\JJ	.	.	.	.	.	.	.
24An\LL	.	.	.	.	.	.	.
24B-\	.	.	.	.	.	.	.
24d-\JJ	.	.	.	.	.	.	.
24f\LL)	.	(24F/LL]	.	(24b-/LL	.	(24dd-\LL]	.
(24BB-\	.	24d-/	.	24f/	.	24ff\	.
24C\JJ)	.	24An/JJ)	.	24f/JJ)	.	24ee-\JJ)	.
=78	=78	=78	=78	=78	=78	=78	=78
(24DD-/LL	.	[4B-/	.	[4f/	.	(16ee-\LL	.
24FF/	.	.	.	.	.	.	.
.	.	.	.	.	.	16dd-\	.
24BB-/JJ	.	.	.	.	.	.	.
24D-\LL	.	.	.	.	.	16cc\	.
24F\	.	.	.	.	.	.	.
.	.	.	.	.	.	16b-\JJ	.
24B-\JJ	.	.	.	.	.	.	.
24d-\LL)	.	24B-/LL]	.	24f/LL]	.	24gg\LL	.
24D-\	.	(24B-/	.	(24f/	.	24ff\)	.
24DD-\JJ	.	24e-/JJ)	.	24B-/JJ)	.	24g\JJ	.
=79	=79	=79	=79	=79	=79	=79	=79
24CC/LL	.	(24e-\LL	.	(24A-/LL	.	(32b-\LLL	.
.	.	.	.	.	.	32a-\	.
24FF/	.	24A-\	.	24d-/	.	.	.
.	.	.	.	.	.	32ee-\	.
24DD-/JJ	.	24f\JJ)	.	24a-/JJ)	.	.	.
.	.	.	.	.	.	(32dd-\JJJ)	.
(24EE-/LL	f	(24e-\LL	f	(24a-/LL	f	8cc\L	f
24E-/	>	24c\	>	24e-/	.	.	.
24EE-/JJ)	.	24A-\JJ	.	24c/JJ)	.	.	.
24EE-/LL	.	24G/LL)	.	24d-/LL	.	24b-\L	.
24EE-/	.	24G/	.	24d-/	.	24ff\	.
24EE-/JJ	.	24G/JJ	.	24d-/JJ	.	24ee-\JJ	.
=80	=80	=80	=80	=80	=80	=80	=80
(24AA-/LL	p	16A-/	p	8c/	p	8a-/L)	p
24BB-/	.	.	.	.	.	.	.
.	.	16r	.	.	.	.	.
24C/JJ)	.	.	.	.	.	.	.
4AA-/ 4D-/	.	(24F/LL	.	8r	.	8.f/	.
.	.	24G/	.	.	.	.	.
.	.	24An/JJ	.	.	.	.	.
.	.	8B-/)	.	(24B-/LL	.	.	.
.	.	.	.	24c/	.	.	.
.	.	.	.	.	.	16b-/Jk	.
.	.	.	.	24d-/JJ)	.	.	.
=81	=81	=81	=81	=81	=81	=81	=81
24AA-/LL	.	24D-/LL	.	4.B-/ 4.e-/	.	(8a-/L	.
24AA-/	.	24D-/	.	.	.	.	.
24AA-/JJ	.	24D-/JJ	.	.	.	.	.
24AA-/LL	.	24D-/LL	.	.	.	8g/	.
24AA-/	.	24D-/	.	.	.	.	.
24AA-/JJ	.	24D-/JJ	.	.	.	.	.
24AA-/LL	.	24D-/LL	.	.	.	16f/L	.
24AA-/	.	24D-/	.	.	.	.	.
.	.	.	.	.	.	16e-/JJ)	.
24AA-/JJ	.	24D-/JJ	.	.	.	.	.
=82	=82	=82	=82	=82	=82	=82	=82
(24AA-/LL	.	(24C/LL	.	8c/ 8e-/	.	(16e-/LL	.
24BB-/	.	24D-/	.	.	.	.	.
.	.	.	.	.	.	&(16a-/JJ&))	.
24C/JJ)	.	24E-/JJ	.	.	.	.	.
4AA-/ 4D-/	.	24F/LL	.	8r	.	[8f/L	.
.	.	24G/	.	.	.	.	.
.	.	24An/JJ	.	.	.	.	.
.	.	8B-/)	.	(24B-/LL	.	(24f/L]	.
.	.	.	.	24c/	.	24cc/	.
.	.	.	.	24d-/JJ)	.	24b-/JJ)	.
=83	=83	=83	=83	=83	=83	=83	=83
24AA-/LL	.	24D-/LL	.	[4B-/ [4e-/	.	8a-/L	.
24AA-/	.	24D-/	.	.	.	.	.
24AA-/JJ	.	24D-/JJ	.	.	.	.	.
24AA-/LL	.	24D-/LL	.	.	.	[8g/J	.
24AA-/	.	24D-/	.	.	.	.	.
24AA-/JJ	.	24D-/JJ	.	.	.	.	.
24AA-/LL	.	24D-/LL	.	(24B-/] 24e-/LL]	.	(24g/LL]	.
24AA-/	.	24D-/	.	24f/	.	24f/	.
24AA-/JJ	.	24D-/JJ	.	24g/JJ)	.	24e-/JJ)	.
=84	=84	=84	=84	=84	=84	=84	=84
24AA-/LL	.	24C/LL	.	24a-\LL	.	(8e-/L	.
24AA-/	.	24A-/	.	24cc\	.	.	.
24AA-/JJ	.	24A-/JJ	.	24cc\JJ	.	.	.
24DD-/LL	.	24A-/LL	.	24cc\LL	.	8f/	.
24DD-/	.	24A-/	.	24b-\	.	.	.
24DD-/JJ	.	24A-/JJ	.	24b-\JJ	.	.	.
24EE-/LL	.	24G/LL	.	24b-\LL	.	8g/J)	.
24EE-/	.	24B-/	.	24dd-\	.	.	.
24EE-/JJ	.	24B-/JJ	.	24dd-\JJ	.	.	.
=85	=85	=85	=85	=85	=85	=85	=85
(24EE-/LL	.	(8B-/	>	(4dd-\	>	4.b-\	>
24BB-/	>	.	.	.	.	.	.
[24E-/JJ)	.	.	.	.	.	.	.
8E-/L]	.	24G/LL	.	.	.	.	.
.	.	24B-/	.	.	.	.	.
.	.	[24d-/JJ)	.	.	.	.	.
8EE-/J	.	8d-\]	.	24g\LL	.	.	.
.	.	.	.	24b-\)	.	.	.
.	.	.	.	24ee-\JJ	.	.	.
=86	=86	=86	=86	=86	=86	=86	=86
8AA-/L	p	8c/L	p	8a-/	p	8a-/	p
(8E-/J	>	(8G-/J	>	8r	.	16r	.
.	.	.	.	.	.	8a-/L	>
16D-/LL	.	16F/LL	.	8r	.	.	.
16AA-/JJ)	.	16E-/JJ)	.	.	.	16a-/Jk	.
=87	=87	=87	=87	=87	=87	=87	=87
4.DD-/	.	(32F/LLL	.	4.r	.	(8.a-\L	.
.	.	32A-/	.	.	.	.	.
.	.	32B-/	.	.	.	.	.
.	.	32A-/JJJ	.	.	.	.	.
.	.	32F/LLL	.	.	.	.	.
.	.	32A-/	.	.	.	.	.
.	.	32F/	.	.	.	16dd-\L	.
.	.	32A-/JJJ	.	.	.	.	.
.	.	32F/LLL	.	.	.	16ee-\	.
.	.	32A-/	.	.	.	.	.
.	.	32F/)	.	.	.	16ff\JJ)	.
.	.	32A-/JJJ	.	.	.	.	.
=88	=88	=88	=88	=88	=88	=88	=88
4CC/	.	(32E-/LLL	.	4.r	.	(8ff\L	.
.	.	32A-/	.	.	.	.	.
.	.	32B-/	.	.	.	.	.
.	.	32A-/JJJ	.	.	.	.	.
.	.	32E-/LLL	.	.	.	8gg-\J	.
.	.	32A-/	.	.	.	.	.
.	.	32E-/	.	.	.	.	.
.	.	32A-/JJJ	.	.	.	.	.
(16CC/LL	.	32E-/LLL	.	.	.	16ee-\LL	.
.	.	32A-/	.	.	.	.	.
16DD-/JJ)	.	32F/	.	.	.	16dd-\JJ)	.
.	.	32A-/JJJ)	.	.	.	.	.
=89	=89	=89	=89	=89	=89	=89	=89
4EE-/	.	(32G-/LLL	.	4.r	.	8.cc\L	.
.	.	32A-/	.	.	.	.	.
.	.	32B-/	.	.	.	.	.
.	.	32A-/JJJ	.	.	.	.	.
.	.	32G-/LLL	.	.	.	.	.
.	.	32A-/	.	.	.	.	.
.	.	32G-/	.	.	.	(16cc\L	.
.	.	32A-/JJJ	.	.	.	.	.
(16DD-/LL	.	32F/LLL	.	.	.	16dd-\	.
.	.	32A-/	.	.	.	.	.
16CC/JJ)	.	32E-/	.	.	.	16ee-\JJ)	.
.	.	32A-/JJJ)	.	.	.	.	.
=90	=90	=90	=90	=90	=90	=90	=90
4DD-/	.	(32F/LLL	.	4.r	.	(8ee-\L	.
.	.	32A-/	.	.	.	.	.
.	.	32B-/	.	.	.	.	.
.	.	32A-/JJJ	.	.	.	.	.
.	.	32F/LLL	.	.	.	8.ff\J)	.
.	.	32A-/	.	.	.	.	.
.	.	32F/	.	.	.	.	.
.	.	32A-/JJJ	.	.	.	.	.
(16D-/LL	.	32F/LLL	.	.	.	.	.
.	.	32A-/	.	.	.	.	.
16C/JJ)	.	32E-/	.	.	.	16ff\	.
.	.	32An/JJJ)	.	.	.	.	.
=91	=91	=91	=91	=91	=91	=91	=91
(8.BB-\L	.	(32D-/LLL	.	4.r	.	8.ff\L	.
.	.	32F/	.	.	.	.	.
.	.	32B-/	.	.	.	.	.
.	.	32F/JJJ	.	.	.	.	.
.	.	32B-/LLL	.	.	.	.	.
.	.	32F/	.	.	.	.	.
16BB-\L	.	32B-/	.	.	.	16b-\L	.
.	.	32F/JJJ	.	.	.	.	.
16D-\	.	32B-/LLL	.	.	.	(16b-\	.
.	.	32F/	.	.	.	.	.
16F\JJ)	.	32An/	.	.	.	16cc\JJ)	.
.	.	32F/JJJ)	.	.	.	.	.
=92	=92	=92	=92	=92	=92	=92	=92
(8B-\L	.	(32F/LLL	.	4.r	.	8cc\L	.
.	.	32An/	.	.	.	.	.
.	.	32B-/	.	.	.	.	.
.	.	32A/JJJ)	.	.	.	.	.
8BB-\J	.	(32F/LLL	.	.	.	8dd-\J	.
.	.	32B-/	.	.	.	.	.
.	.	32c/	.	.	.	.	.
.	.	32B-/JJJ)	.	.	.	.	.
16BBn/LL	.	(32F/LLL	.	.	.	16ddn\LL	.
.	.	32A-/	.	.	.	.	.
16C/JJ)	.	32E-/	.	.	.	16ee-\JJ	.
.	.	32A-/JJJ)	.	.	.	.	.
=93	=93	=93	=93	=93	=93	=93	=93
(16C\LL	.	(32E-/LLL	.	4.r	.	(8ee-\L	.
.	.	32A-/	.	.	.	.	.
16D-\J	.	32F/	.	.	.	.	.
.	.	32A-/JJJ)	.	.	.	.	.
8E-\J)	.	(32C/LLL	.	.	.	16a-\L)	.
.	.	32E-/	.	.	.	.	.
.	.	32A-/	.	.	.	(16a-\	.
.	.	32E-/JJJ	.	.	.	.	.
*clefC4	*clefG2	*	*	*	*	*	*
[8g-\	.	32A-/LLL	.	.	.	16cc\	.
.	.	32E-/	.	.	.	.	.
.	.	32A-/	.	.	.	16b-\JJ)	.
.	.	32E-/JJJ)	.	.	.	.	.
=94	=94	=94	=94	=94	=94	=94	=94
(16g-\LL]	.	(32E-/LLL	.	8r	.	(16a-\LL	.
.	.	32A-/	.	.	.	.	.
16e-\	.	32G-/	.	.	.	16cc\	.
.	.	32A-/JJJ)	.	.	.	.	.
16c\	.	(32E-/LLL	.	8r	.	16ee-\	.
.	.	32A-/	.	.	.	.	.
16d-\	.	32D-/	.	.	.	16ff\	.
.	.	32A-/JJJ	.	.	.	.	.
16e-\	.	32C/LLL	.	16r	.	16gg-\	.
.	.	32A-/	.	.	.	.	.
16A-\JJ)	.	32C/	.	(32e-/LLL	.	16aa-\JJ)	.
.	.	32E-/JJJ)	.	32g-/JJJ)	.	.	.
=95	=95	=95	=95	=95	=95	=95	=95
(8.A-\L	.	4.D-/	.	32f/LLL	.	8ff\	.
.	.	.	.	(32A-/	.	.	.
.	.	.	.	32B-/	.	.	.
.	.	.	.	32A-/JJJ	.	.	.
.	.	.	.	32f/LLL	.	8r	.
.	.	.	.	32A-/	.	.	.
16d-\L	.	.	.	32f/	.	.	.
.	.	.	.	32A-/JJJ	.	.	.
16e-\	.	.	.	32f/LLL	.	8aa-\	.
.	.	.	.	32A-/	.	.	.
16f\JJ)	.	.	.	32f/	.	.	.
.	.	.	.	32A-/JJJ)	.	.	.
=96	=96	=96	=96	=96	=96	=96	=96
(8f\L	.	4C/	.	(32e-/LLL	.	(16aa-\LL	mp
.	.	.	.	32A-/	.	.	.
.	.	.	.	32B-/	.	16ccc\	.
.	.	.	.	32A-/JJJ	.	.	.
8g-\	.	.	.	32e-/LLL	.	16eee-\	.
.	.	.	.	32A-/	.	.	.
.	.	.	.	32e-/	.	16fff\JJ)	.
.	.	.	.	32A-/JJJ	.	.	.
16e-\L	.	(16C/LL	.	32e-/LLL	.	8ggg-\	.
.	.	.	.	32A-/	.	.	.
16d-\JJ)	.	16D-/JJ)	.	32f/	.	.	.
.	.	.	.	32A-/JJJ)	.	.	.
=97	=97	=97	=97	=97	=97	=97	=97
8.c\L	.	4E-/	.	(32g-/LLL	.	16r	.
.	.	.	.	32A-/	.	.	.
.	.	.	.	32B-/	.	(16ccc\LL	.
.	.	.	.	32A-/JJJ	.	.	.
.	.	.	.	32g-/LLL	.	16ddd-\	.
.	.	.	.	32A-/	.	.	.
(16c\L	.	.	.	32g-/	.	16eee-\JJ)	.
.	.	.	.	32A-/JJJ	.	.	.
16d-\	.	(16D-/LL	.	32f/LLL	.	8r	.
.	.	.	.	32A-/	.	.	.
16e-\JJ)	.	16C/JJ)	.	32a-/	.	.	.
.	.	.	.	32A-/JJJ)	.	.	.
=98	=98	=98	=98	=98	=98	=98	=98
(8e-\L	.	(8BB-/L	.	(32a-/LLL	.	16r	.
.	.	.	.	32A-/	.	.	.
.	.	.	.	32B-/	.	(16eee-\LL	.
.	.	.	.	32A-/JJJ	.	.	.
8.f\J)	.	8D-/J)	.	32a-/LLL	.	16ddd-\	.
.	.	.	.	32A-/	.	.	.
.	.	.	.	32a-/	.	16eee-\	.
.	.	.	.	32f/JJJ	.	.	.
.	.	(16D-/LL	.	32a-/LLL	.	16fff\JJ)	.
.	.	.	.	32f/	.	.	.
16f\	.	16C/JJ)	.	32an/	.	16r	.
.	.	.	.	32e-/JJJ)	.	.	.
=99	=99	=99	=99	=99	=99	=99	=99
8.f\L	.	8.D-/L	.	32b-/LLL	.	16r	.
.	.	.	.	(32f/	.	.	.
.	.	.	.	32g-/	.	16fff\LL	.
.	.	.	.	32f/JJJ	.	.	.
.	.	.	.	32b-/LLL	.	16fff\	.
.	.	.	.	32f/	.	.	.
16B-\L	.	16D-/L	.	32b-/	.	16ddd-\	.
.	.	.	.	32f/JJJ	.	.	.
(16B-\	.	(16D-/	.	32b-/LLL	.	16bb-\JJ	.
.	.	.	.	32f/	.	.	.
16c\JJ)	.	16F/JJ)	.	32a-/	.	16r	.
.	.	.	.	32f/JJJ)	.	.	.
=100	=100	=100	=100	=100	=100	=100	=100
(8c\L	.	(8F/L	.	(32f/LLL	.	16r	.
.	.	.	.	32an/	.	.	.
.	.	.	.	32b-/	.	(16fff\LL	.
.	.	.	.	32a/JJJ	.	.	.
8d-\J)	.	8B-/J)	.	32b-/LLL	.	16eee-\	.
.	.	.	.	32f/	.	.	.
.	.	.	.	32b-/	.	16ddd-\JJ)	.
.	.	.	.	32f/JJJ	.	.	.
(16dn\LL	.	(16Bn/LL	.	32a-/LLL	.	8r	.
.	.	.	.	32f/	.	.	.
16e-\JJ)	.	16c/JJ)	.	32a-/	.	.	.
.	.	.	.	32e-/JJJ)	.	.	.
=101	=101	=101	=101	=101	=101	=101	=101
8e-\L	.	(16C/LL	.	(32a-/LLL	.	16r	.
.	.	.	.	32e-/	.	.	.
.	.	16D-/JJ)	.	32a-/	.	16eee-\LL	.
.	.	.	.	32f/JJJ	.	.	.
16A-\L	.	8E-/L	.	32c/LLL	.	(16eee-\	.
.	.	.	.	32A-/	.	.	.
(16A-\	.	.	.	32c/	.	16ccc\	.
.	.	.	.	32A-/JJJ	.	.	.
16c\	.	8E-/J	.	32e-/LLL	.	16aa-\JJ)	.
.	.	.	.	32A-/	.	.	.
16B-\JJ)	.	.	.	32d-/	.	16r	.
.	.	.	.	32G/JJJ)	.	.	.
=102	=102	=102	=102	=102	=102	=102	=102
8A-/	.	8A-/L	.	8c/	.	16r	.
.	.	.	.	.	.	(16bb-\LL	.
*clefF4	*clefF4	*	*	*	*	*	*
(8AA-'/L	pp	[8E-'/ 8A-'/	pp	(8c-'/L	pp	16aa-\JJ)	.
.	.	.	.	.	.	16r	.
8AA-'/J)	.	8E-/] 8A-/J	.	8c-'/J)	.	8r	.
=103	=103	=103	=103	=103	=103	=103	=103
(4AA-/	.	4E-/ (4A-/	.	(4c-/	.	(4cc-\	pp
*	*	*^	*	*	*	*	*
16GG/LL	.	16B-/LL	8E-\	.	16d-/LL	.	16dd-\LL	.
16AA-/JJ)	.	16A-/JJ)	.	.	16c-/JJ)	.	16cc-\JJ)	.
=104	=104	=104	=104	=104	=104	=104	=104	=104
(4EE-/	.	(8A-/L	4.E-\	.	(8c-/L	.	8cc-\L	.
.	.	8G/	.	.	8B-/	.	8b-\	.
8AA-/)	.	8A-/J)	.	.	8c-/J)	.	8cc-\J	.
*	*	*v	*v	*	*	*	*	*
=105	=105	=105	=105	=105	=105	=105	=105
(8FF-/L	.	4A-/	.	(8d-/	.	8dd-\L	.
8EE-/	.	.	.	4c-/	.	8.cc-\	.
8DD-/J	.	(8A-/	.	.	.	.	.
.	.	.	.	.	.	16ff-\Jk	.
=106	=106	=106	=106	=106	=106	=106	=106
4EE-/)	.	4G/)	.	4B-/)	.	4b-\	.
(8E-\	.	(8G/	.	(8B-/ 8e-/	.	(8b-\	.
=107	=107	=107	=107	=107	=107	=107	=107
4A-\)	.	4A-/)	.	4c-/) 4e-/	.	4cc-\)	.
(8A-\	.	(8c-/	.	[8e-/	.	(8dd-\	.
=108	=108	=108	=108	=108	=108	=108	=108
8.G\)	.	8.B-/)	.	8.e-/]	.	8.ee-\)	.
16r	.	16r	.	16r	.	16r	.
(8F\	.	(8A-/	.	(8a-/	.	(8dd-\	.
=109	=109	=109	=109	=109	=109	=109	=109
8.En\)	.	8.cn/)	.	8.g/)	.	8.ccn\)	.
16r	.	16r	.	16r	.	16r	.
(8F\	.	(8A-/	f	(8a-/	f	(8dd-\	f
=110	=110	=110	=110	=110	=110	=110	=110
8.En\)	.	8.cn/)	.	8.g/)	.	8.cc\)	.
16r	.	16r	.	16r	.	16r	.
(16DD-/LL	ff	(16D-/LL	ff	(16d-/LL	ff	(16dd-\LL	ff
16CC/JJ)	.	16C/) 16c/JJ	.	16c/JJ)	.	16cc\JJ)	.
=111	=111	=111	=111	=111	=111	=111	=111
(8CC/ 8C/L	.	(8C/ 8c/L	.	(8c/L	.	(8cc\L	.
(8BBn/J)	.	8Bn/J)	.	8Bn/J)	.	8bn\J)	.
24D-/LL	p	(24d-/LL	p	8r	.	8r	.
24C/	.	24c/	.	.	.	.	.
24D-/JJ)	.	24d-/JJ)	.	.	.	.	.
=112	=112	=112	=112	=112	=112	=112	=112
(8C/L	.	(8c/L	.	4.r	.	4.r	.
8BBn/J)	.	8Bn/J)	.	.	.	.	.
24D-/LL	.	24d-/LL	.	.	.	.	.
(24C/	.	(24c/	.	.	.	.	.
24D-/JJ	.	24d-/JJ	.	.	.	.	.
=113	=113	=113	=113	=113	=113	=113	=113
24C/LL	.	24c/LL	.	8r	.	8r	.
24BBn/	.	24Bn/	.	.	.	.	.
24C/JJ	.	24c/JJ	.	.	.	.	.
24BB-/LL	.	24B-/LL	.	(24d-/LL	p	8r	.
24AAn/	.	24An/	.	24c/	.	.	.
24BB-/JJ	.	24B-/JJ	.	24d-/JJ	.	.	.
24AA-/LL	.	24A-/LL	.	24c-/LL	.	(24f-/LL	p
24GG/	.	24G/	.	24B-/	.	24e-/	.
24AA-/JJ)	.	24A-/JJ)	.	24c-/JJ)	.	24f-/JJ)	.
=114	=114	=114	=114	=114	=114	=114	=114
(24GG/LL	<	(24G/LL	<	(24B-/LL	<	[4e-/	<
24FF#/	.	24F#/	.	24An/	.	.	.
24GG/JJ	.	24G/JJ	.	24B-/JJ	.	.	.
24FFn/LL	.	24Fn/LL	.	24A-/LL	.	.	.
24EEn/	.	24En/	.	24G/	>	.	.
24FF/JJ	>	24F/JJ	>	24A-/JJ	.	.	.
16EE-/LL	.	24E-/LL	.	24G/LL	.	(16e-/LL]	>
.	.	24F/	.	24A-/	.	.	.
16GG/JJ)	.	.	.	.	.	16d-/JJ)	.
.	.	24G/JJ)	.	24B-/JJ)	.	.	.
=115	=115	=115	=115	=115	=115	=115	=115
16AA-/LL	.	16A-/	.	32c'\LLL	.	(4c/	.
.	.	.	.	32a-'\	.	.	.
16AA-/JJ	.	16r	.	32cc'\	.	.	.
.	.	.	.	32ee-'\JJJ	.	.	.
16r	.	16A-\LL	.	32aa-'\LLL	.	.	.
.	.	.	.	32ee-'\	.	.	.
16AA-/	.	16c\	.	32aa-'\	.	.	.
.	.	.	.	32ee-'\JJJ	.	.	.
16r	.	16f\	.	32aa-'\LLL	.	16d-/LL	.
.	.	.	.	32ff'\	.	.	.
16AA-/	.	16a-\JJ	.	32aa-'\	.	16c/JJ)	.
.	.	.	.	32ee-'\JJJ	.	.	.
=116	=116	=116	=116	=116	=116	=116	=116
16r	.	16Dn/LL	.	32aa-'\LLL	.	(8c/L	.
.	.	.	.	32ff'\	.	.	.
16AA-/	.	16dn/	.	32aa-'\	.	.	.
.	.	.	.	32ff'\JJJ	.	.	.
16r	.	16d-/	.	32gg'\LLL	.	8B-/	.
.	.	.	.	32een'\	.	.	.
16AA-/	.	16D-/	.	32gg'\	.	.	.
.	.	.	.	32ee'\JJJ	.	.	.
16r	.	16C/	.	32aa-'\LLL	.	8c/J)	.
.	.	.	.	32ee-'\	.	.	.
16AA-/	.	16c/JJ	.	32aa-'\	.	.	.
.	.	.	.	32ee-'\JJJ	.	.	.
=117	=117	=117	=117	=117	=117	=117	=117
16FF/LL	.	16a-\LL	.	32aa-\LLL	.	(8d-/L	.
.	.	.	.	32ff\	.	.	.
16GG/JJ	.	16B-\	.	32bb-\	.	.	.
.	.	.	.	32ee-\JJJ	.	.	.
16r	.	16a-\	.	32bb-\LLL	.	8.c/	.
.	.	.	.	32ee-\	.	.	.
16AA-/	.	16A-\	.	32aa-\	.	.	.
.	.	.	.	32ee-\JJJ	.	.	.
16r	.	16c\	.	32aa-\LLL	.	.	.
.	.	.	.	32ee-\	.	.	.
16C/	.	16C\JJ	.	32aa-\	.	16e-/Jk)	.
.	.	.	.	32ee-\JJJ	.	.	.
=118	=118	=118	=118	=118	=118	=118	=118
16r	.	16e-\LL	.	32gg\LLL	.	4B-/	.
.	.	.	.	32ee-\	.	.	.
16E-\	.	16E-\	.	32gg\	.	.	.
.	.	.	.	32ee-\JJJ	.	.	.
16r	.	16G\	.	32gg\LLL	.	.	.
.	.	.	.	32ee-\	.	.	.
16EE-/	.	16B-\	.	32b-\	.	.	.
.	.	.	.	32ee-\JJJ	.	.	.
16r	.	16e-\	.	32g\LLL	.	8B-/	.
.	.	.	.	32b-\	.	.	.
16E-\	.	16g\JJ	.	32ee-\	.	.	.
.	.	.	.	32gg\JJJ	.	.	.
=119	=119	=119	=119	=119	=119	=119	=119
16r	.	16C\LL	.	32aa-\LLL	.	(8c/L	.
.	.	.	.	32ee-\	.	.	.
16AA-/	.	16E-\	.	32cc\	.	.	.
.	.	.	.	32ee-\JJJ	.	.	.
16r	.	16A-\	.	32cc\LLL	.	8A-/	.
.	.	.	.	32a-\	.	.	.
16AA-/	.	16c\	.	32e-\	.	.	.
.	.	.	.	32a-\JJJ	.	.	.
16r	.	16e-\	.	32a-\LLL	.	(8c/J)	.
.	.	.	.	32e-\	.	.	.
16AA-/	.	16a-\JJ	.	32cc\	.	.	.
.	.	.	.	32ee-\JJJ	.	.	.
=120	=120	=120	=120	=120	=120	=120	=120
16r	.	16G\LL	.	32bb-\LLL	.	(8d-/L)	.
.	.	.	.	32een\	.	.	.
8GG/	.	16B-\	.	32dd-\	.	.	.
.	.	.	.	32ee\JJJ	.	.	.
.	.	16d-\	.	32ee\LLL	.	8B-/	.
.	.	.	.	32dd-\	.	.	.
16r	.	16en\	.	32b-\	.	.	.
.	.	.	.	32dd-\JJJ	.	.	.
16r	.	16g\	.	32dd-\LLL	.	8d-/J)	.
.	.	.	.	32b-\	.	.	.
16FF/	.	16a-\JJ	.	32dd-\	.	.	.
.	.	.	.	32b-\JJJ	.	.	.
=121	=121	=121	=121	=121	=121	=121	=121
16r	.	16En\LL	.	32cc\LLL	.	(16c/LK	.
.	.	.	.	32b-\	.	.	.
16EEn'/LL	.	16g\	.	32gg\	.	[8.cc/J)	.
.	.	.	.	32cc\JJJ	>	.	.
16FF'/	>	16c\	>	32aa-\LLL	.	.	.
.	.	.	.	32cc\	.	.	.
16AA-'/	.	16F\	.	32aa-\	.	.	.
.	.	.	.	32gg\JJJ	.	.	.
16BB-'/	.	16B-\	.	32aa-\LLL	.	48cc/LLL]	>
.	.	.	.	.	.	(48b-/	.
.	.	.	.	32ee-\	.	.	.
.	.	.	.	.	.	48a-/JJJ	.
16BB-'/JJ	.	16B-\JJ	.	32aa-\	.	48g/LLL	.
.	.	.	.	.	.	48a-/	.
.	.	.	.	32ddn\JJJ	.	.	.
.	.	.	.	.	.	48f/JJJ)	.
=122	=122	=122	=122	=122	=122	=122	=122
16r	.	16dn\LL	.	32aa-\LLL	.	(8f/L	.
.	.	.	.	32ddn\	.	.	.
16EE-/	.	16b-\	.	32ee-\	.	.	.
.	.	.	.	32ff\JJJ	.	.	.
16r	.	16b-\	.	32gg\LLL	.	8e-/J)	.
.	.	.	.	32ee-\	.	.	.
16EE-/	.	16G\	.	32b-\	.	.	.
.	.	.	.	32g\JJJ	.	.	.
16r	.	16G\	.	8e-/	.	(16B-/LL	.
16EE-/	.	16F\JJ	.	.	.	16A-/JJ)	.
=123	=123	=123	=123	=123	=123	=123	=123
16r	.	16E-\LL	.	8.r	.	(32G/LLL	.
.	.	.	.	.	.	32g/	.
16DD-/	.	16b-\	.	.	.	32e-/	.
.	.	.	.	.	.	32g/JJJ	.
16r	.	16cc\	.	.	.	32A-/LLL	.
.	.	.	.	.	.	32a-/	.
16CC/	.	16A-\	.	(16ee-\LL	.	32e-/	.
.	.	.	.	.	.	32a-/JJJ	.
16r	.	16dd-\	.	16gg\	.	32B-/LLL	.
.	.	.	.	.	.	32b-/	.
16BB-/	.	16G\JJ	.	16bb-\JJ	.	32e-/	.
.	.	.	.	.	.	32b-/JJJ)	.
=124	=124	=124	=124	=124	=124	=124	=124
16r	.	16A-\LL	.	16eee-\LL	.	(32c/LLL	.
.	.	.	.	.	.	32cc/	.
16AA-/	.	16cc\	.	16ccc\	.	32e-/	.
.	.	.	.	.	.	32cc/JJJ	.
16r	.	16A-\	.	16gg\	.	32c/LLL	.
.	.	.	.	.	.	32e-/	.
16AA-'/LL	.	16c\	.	[16aa-\JJ)	.	32a-/	.
.	.	.	.	.	.	32cc/JJJ	.
16EE-'/	.	16g-\	.	8aa-\_	.	32a-\LLL	.
.	.	.	.	.	.	32cc\	.
16FF'/JJ	.	16f\JJ	.	.	.	32ff\	.
.	.	.	.	.	.	32dd-\JJJ)	.
=125	=125	=125	=125	=125	=125	=125	=125
16GG-/LL	.	16e-\LL	.	8.aa-\]	.	32cc/LLL	.
.	.	.	.	.	.	(32a-/	.
16GG-/JJ	.	16E-\	.	.	.	32cc/	.
.	.	.	.	.	.	32e-/JJJ	.
16r	.	16F\	.	.	.	32dd-/LLL	.
.	.	.	.	.	.	32a-/	.
16FF/	.	16a-\	.	(16A-/LL	.	32dd-/	.
.	.	.	.	.	.	32f/JJJ	.
16r	.	16E-\	.	16c/	.	32ee-/LLL	.
.	.	.	.	.	.	32cc/	.
16EE-/	.	16g-\JJ	.	16a-/JJ)	.	32ee-/	.
.	.	.	.	.	.	32g-/JJJ)	.
=126	=126	=126	=126	=126	=126	=126	=126
16r	.	16D-/LL	.	(16a-/LL	.	(32ff/LLL	.
.	.	.	.	.	.	32A-/	<
16DD-/	.	16f\	.	16f/	.	32d-/	.
.	.	.	.	.	.	32A-/JJJ	.
16r	.	16a-\	.	16e-/	.	32f/LLL	.
.	.	.	.	.	.	32a-/	.
(16D-\	.	16dd-\JJ	.	16d-/JJ	.	32dd-/	.
.	.	.	.	.	.	32ff/JJJ	.
16C\LL	.	16e-\LL	.	16e-/LL	.	32gg-\LLL	.
.	.	.	.	.	.	32ee-\	.
16D-\JJ)	.	16A-\JJ	.	[16f/JJ)	.	32ff\	.
.	.	.	.	.	.	32dd-\JJJ)	.
=127	=127	=127	=127	=127	=127	=127	=127
16r	.	16An\LL	.	16f/LL]	.	(32ff\LLL	.
.	.	.	.	.	.	32dd-\	.
16AAn/	.	16f\	.	(16c/	.	32f\	.
.	.	.	.	.	.	32ff\JJJ	.
16r	.	16cc\	.	16f/	.	32ee-\LLL	.
.	.	.	.	.	.	32cc\	.
(16AA/	.	16ff\JJ	.	16cc/JJ)	.	32f\	.
.	.	.	.	.	.	32ee-\JJJ)	.
16FF/LL	.	16d-\LL	.	[8f/	.	(32ff\LLL	.
.	.	.	.	.	.	32dd-\	.
16AA/JJ)	.	16c\JJ	.	.	.	32ee-\	.
.	.	.	.	.	.	32cc\JJJ)	.
=128	=128	=128	=128	=128	=128	=128	=128
16r	.	16B-\LL	.	16f\LL]	.	(32ee-\LLL	.
.	.	.	.	.	.	32cc\	.
16BB-/	.	16d-\	.	(16f\	.	32f\	.
.	.	.	.	.	.	32ee-\JJJ	.
16r	.	16f\	.	16b-\	.	32dd-\LLL	.
.	.	.	.	.	.	32b-\	.
16BB-/LL	.	16b-\JJ	.	16dd-\JJ)	.	32f\	.
.	.	.	.	.	.	32dd-\JJJ)	.
(16BB-/	.	16D-/LL	.	[8f/	.	(32gg-\LLL	.
.	.	.	.	.	.	32ff\)	.
16C/JJ)	.	16E-/JJ	.	.	.	(32ff\	.
.	.	.	.	.	.	32ee-\JJJ)	.
=129	=129	=129	=129	=129	=129	=129	=129
16r	.	16D-/LL	.	16f/LL]	.	(32ee-\LLL	.
.	.	.	.	.	.	32dd-\)	.
16D-/	.	16F/	.	(16b-/JJ	.	(32dd-\	.
.	.	.	.	.	.	32cc\JJJ)	.
16r	.	16B-/	.	16ff\LL	.	(32cc\LLL	.
.	.	.	.	.	.	32b-\)	.
16DD-/	.	16d-/JJ	.	[16bb-\JJ)	.	(32b-\	.
.	.	.	.	.	.	32ff\JJJ)	.
16r	.	16D-/ 16G/LL	.	8bb-\]	.	(32ff\LLL	.
.	.	.	.	.	.	32ee-\)	.
16DD-/	.	16e-/JJ	.	.	.	(32ee-\	.
.	.	.	.	.	.	32gn\JJJ)	.
=130	=130	=130	=130	=130	=130	=130	=130
16CC'/LL	.	16e-/LL	.	16ccc\	.	(32b-\LLL	.
.	.	.	.	.	.	32a-\)	.
16FF'/JJ	.	16F/JJ	.	(16A-/LL	.	(32ff\	.
.	.	.	.	.	.	32dd-\JJJ)	.
16r	.	16E-/ 16A-/LL	f	16c/	f	(32cc\LLL	f
.	.	.	.	.	.	32ee-\)	>
16EE-/	f	16c/	.	16cc/	.	(32aa-\	.
.	.	.	.	.	.	32ccc\JJJ)	.
16r	.	16E-/ 16d-/JJ	.	16g/	.	(32aan\LLL	.
.	.	.	.	.	.	32bb-\)	.
16EE-/	.	16r	.	16ee-/JJ)	.	(32eee-\	.
.	.	.	.	.	.	32gg\JJJ)	.
=131	=131	=131	=131	=131	=131	=131	=131
16r	.	(32C/LLL	p	(32c/LLL	p	(8aa-\L	p
.	.	32E-/)	.	32e-/)	.	.	.
16AA-/	p	(32E-/	.	(32e-/	.	.	.
.	.	32A-/JJJ)	.	32a-/JJJ)	.	.	.
16r	.	(32D-/LLL	.	(32d-/LLL	.	8.ff\	.
.	.	32F/)	.	32f/)	.	.	.
16AA-/	.	(32F/	.	(32f/	.	.	.
.	.	32A-/JJJ)	.	32a-/JJJ)	.	.	.
16r	.	(32D-/LLL	.	(32d-/LLL	.	.	.
.	.	32F/)	.	32f/)	.	.	.
16AA-/	.	(32F/	.	(32f/	.	16bb-\Jk	.
.	.	32B-/JJJ)	.	32b-/JJJ)	.	.	.
=132	=132	=132	=132	=132	=132	=132	=132
16r	.	(32D-/LLL	.	(32d-/LLL	.	8aa-\L	.
.	.	32E-/)	.	(32e-/)	.	.	.
16AA-/	.	(32E-/	.	32e-/	.	.	.
.	.	32B-/JJJ)	.	32b-/JJJ)	.	.	.
16r	.	(32E-/LLL	.	(32e-/LLL	.	8gg\	.
.	.	32G/)	.	&(32g/&)	.	.	.
16AA-/	.	(32G/	.	(32g/)	.	.	.
.	.	32B-/JJJ)	.	32b-/JJJ)	.	.	.
16r	.	(32G/LLL	.	(32g/LLL	.	16ff\L	.
.	.	32B-/)	.	32b-/)	.	.	.
16AA-/	.	(32B-/	.	(32b-/	.	16ee-\JJ)	.
.	.	32d-/JJJ)	.	32dd-/JJJ)	.	.	.
=133	=133	=133	=133	=133	=133	=133	=133
16r	.	(8A-/L	.	(8a-/L	.	(32cc\LLL	.
.	.	.	.	.	.	32ee-\)	.
16AA-/	.	.	.	.	.	(32ee-\	.
.	.	.	.	.	.	32aa-\JJJ)	.
16r	.	8.F/	.	8.f/	.	(32dd-\LLL	.
.	.	.	.	.	.	32ff\)	.
16AA-/	.	.	.	.	.	(32ff\	.
.	.	.	.	.	.	32bb-\JJJ)	.
16r	.	.	.	.	.	(32ff\LLL	.
.	.	.	.	.	.	32bb-\)	.
16AA-/	.	16B-/Jk)	.	16b-/Jk)	.	(32bb-\	.
.	.	.	.	.	.	32ddd-\JJJ)	.
=134	=134	=134	=134	=134	=134	=134	=134
16r	.	(8A-/L	.	(8a-/L	.	(32ff\LLL	.
.	.	.	.	.	.	32bb-\)	.
16AA-/	.	.	.	.	.	(32bb-\	.
.	.	.	.	.	.	32ddd-\JJJ)	.
16r	.	8G/	.	8g/	.	(32ee-\LLL	.
.	.	.	.	.	.	32bb-\)	.
16AA-/	.	.	.	.	.	(32bb-\	.
.	.	.	.	.	.	32ddd-\JJJ)	.
16r	.	16F/L	.	16f/L	.	(32ee-\LLL	.
.	.	.	.	.	.	32bb-\)	.
16AA-/	.	16E-/JJ)	.	16e-/JJ)	.	(32bb-\	.
.	.	.	.	.	.	32ddd-\JJJ)	.
=135	=135	=135	=135	=135	=135	=135	=135
16r	.	(8E-/L	.	(8e-/L	.	(32ddd-\LLL	.
.	.	.	.	.	.	32ccc\)	.
16AA-/	.	.	.	.	.	32bb-\	.
.	.	.	.	.	.	32aa-'\JJJ	.
16r	.	8F/	.	8f/	.	32gg'\LLL	.
.	.	.	.	.	.	32ff'\	.
16EE-/	.	.	.	.	.	32ee-'\	.
.	.	.	.	.	.	32dd-'\JJJ	.
16r	.	8G/J)	.	8g/J)	.	32cc'\LLL	.
.	.	.	.	.	.	32b-'\	.
16EE-/	.	.	.	.	.	32a-'\	.
.	.	.	.	.	.	32g'\JJJ	.
=136	=136	=136	=136	=136	=136	=136	=136
16r	.	4.G/ 4.B-/	>	4.g/ 4.b-/	>	(32f/LLL	.
.	.	.	.	.	.	32e-/	>
16EE-/	>	.	.	.	.	32dn/	.
.	.	.	.	.	.	32e-/JJJ	.
16r	.	.	.	.	.	32g\LLL	.
.	.	.	.	.	.	32b-\	.
16EE-/	.	.	.	.	.	32dd-\	.
.	.	.	.	.	.	32ee-\JJJ	.
16r	.	.	.	.	.	32gg\LLL	.
.	.	.	.	.	.	32bb-\	.
16EE-/	.	.	.	.	.	32ddd-\)	.
.	.	.	.	.	.	32gg'\JJJ	.
=137	=137	=137	=137	=137	=137	=137	=137
8EE-/	p	8G/ 8B-/	p	8g/ 8b-/	p	8ddd-\	p
8r	.	8r	.	8r	.	8r	.
8r	.	(32G\LLL	.	(32g\LLL	.	8r	.
.	.	32B-\	.	32b-\	.	.	.
.	.	32d-\)	.	32dd-\)	.	.	.
.	.	32G'\JJJ	.	32g'\JJJ	.	.	.
=138	=138	=138	=138	=138	=138	=138	=138
8r	.	8d-'\	.	8dd-'\	.	4.r	.
8r	.	8r	.	8r	.	.	.
(32GG/LLL	.	8r	.	8r	.	.	.
32BB-/	.	.	.	.	.	.	.
32D-/)	.	.	.	.	.	.	.
32GG'/JJJ	.	.	.	.	.	.	.
=139	=139	=139	=139	=139	=139	=139	=139
8AA-'/	.	8c-\	.	8e-/	.	(8ee-\L	.
[4A-\	.	[4c-\	.	[4e-/	.	8cc-\)	.
.	.	.	.	.	.	(16ee-'\L	.
.	.	.	.	.	.	16cc-'\JJ)	.
=140	=140	=140	=140	=140	=140	=140	=140
8A-\]	.	8c-\]	.	8e-/]	.	(8b-\L	.
[4A-\	.	[4c-\	.	[4e-/	.	8a-\J)	.
.	.	.	.	.	.	(16a-'\LL	.
.	.	.	.	.	.	16cc-'\JJ)	.
=141	=141	=141	=141	=141	=141	=141	=141
8A-\]	.	8c-\]	.	8e-/]	.	(8ee-\L	.
[4A-\	.	[4c-\	.	[4e-/	.	8aa-\J)	.
.	.	.	.	.	.	(16ccc-'\LL	.
.	.	.	.	.	.	16aa-'\JJ)	.
=142	=142	=142	=142	=142	=142	=142	=142
8A-\L]	.	(8c-\L]	.	8e-/L]	.	8aa-\L	.
8E-\J	p	8B-\J)	p	8e-/J	p	8gg\J)	p
8EE-/	.	8r	.	8r	.	8r	.
=143	=143	=143	=143	=143	=143	=143	=143
8AA-/L	.	4.r	.	8r	.	4.r	.
8.FF/	.	.	.	(8A-/L	.	.	.
.	.	.	.	8d-/J	.	.	.
16BB-/Jk	.	.	.	.	.	.	.
=144	=144	=144	=144	=144	=144	=144	=144
(8AA-/L	.	8r	.	8B-/L	.	8r	.
16GG/L	.	(8E-/L	.	8e-/	.	8r	.
16FF/	.	.	.	.	.	.	.
16EE-/	.	8B-/J)	.	8G/J)	.	(8e-/	.
16DD-/JJ)	.	.	.	.	.	.	.
=145	=145	=145	=145	=145	=145	=145	=145
(8CC/L	.	(8E-/	.	(8.A-/L	.	8a-/L	.
8.DD-/	.	[4F/)	.	.	.	8.f/	.
.	.	.	.	16An/k	.	.	.
.	.	.	.	[8B-/J)	.	.	.
[16DDn/Jk)	.	.	.	.	.	32cc/LL	.
.	.	.	.	.	.	32b-/JJJ	.
=146	=146	=146	=146	=146	=146	=146	=146
16DD/LL]	.	16F/LL]	.	8B-/]	.	8a-/L	.
(16DDn/	.	(16F/	.	.	.	.	.
16EE-/	.	16G/)	.	(16B-/LL	.	8g/	.
16EEn/	.	(16G/	.	16d-/	.	.	.
16FF/	.	16A-/	.	16d-'/)	.	16f/L	.
16GG/JJ	.	16B-/JJ	.	16d-'/JJ	.	16e-/JJ)	.
=147	=147	=147	=147	=147	=147	=147	=147
16AA-/LL	p	8A-/)	p	8c/	p	(8a-/	p
16C/JJ)	.	.	.	.	.	.	.
8r	.	(16D-/LL	.	8r	.	4f/)	.
.	.	16F/JJ)	.	.	.	.	.
8r	.	8r	.	(16A-/LL	.	.	.
.	.	.	.	16d-/JJ)	.	.	.
=148	=148	=148	=148	=148	=148	=148	=148
(16BB-/LL	.	8r	.	8r	.	(8dd-\	.
16D-/JJ)	.	.	.	.	.	.	.
8r	.	(16E-/LL	.	8r	.	4g/)	.
.	.	16G/JJ)	.	.	.	.	.
8r	.	8r	.	(16B-/LL	.	.	.
.	.	.	.	16e-/JJ)	.	.	.
=149	=149	=149	=149	=149	=149	=149	=149
(16C/LL	.	8r	.	8r	.	(8ee-\L	.
16E-/JJ)	.	.	.	.	.	.	.
8r	.	(16F/LL	.	(8c/L	.	8a-\	.
.	.	16A-/JJ)	.	.	.	.	.
(16BB-/LL	.	(16d-\LL	.	16f/L	.	16ee-\L	.
16D-/JJ)	.	16f\JJ)	.	16b-/JJ)	.	16dd-\JJ)	.
=150	=150	=150	=150	=150	=150	=150	=150
(16F\LL	p	8r	.	8r	.	8r	.
16A-\JJ)	.	.	.	.	.	.	.
8r	.	(16c\LL	p	8r	.	8cc\	p
.	.	16e-\JJ)	.	.	.	.	.
8r	.	8r	.	16a-\LL	p	8r	.
.	.	.	.	16cc\JJ	.	.	.
=151	=151	=151	=151	=151	=151	=151	=151
(16e-\LL	.	8r	.	8r	.	8r	.
16g\JJ)	.	.	.	.	.	.	.
8r	.	(16b-\LL	.	8r	.	8ddd-\	.
.	.	16ee-\JJ)	.	.	.	.	.
8r	.	8r	.	(16gg\LL	.	8r	.
.	.	.	.	16bb-\JJ)	.	.	.
=152	=152	=152	=152	=152	=152	=152	=152
4.r	.	8r	.	(16gg\LL	.	[16ddd-\LL	.
.	.	.	.	16bb-\JJ)	.	16ddd-\JJ]	.
.	.	4ff-\	.	8r	.	8r	.
.	.	.	.	8r	.	8r	.
=153	=153	=153	=153	=153	=153	=153	=153
4.r	.	8r	.	(16gg\LL	.	[16ddd-\LL	.
.	.	.	.	16bb-\JJ)	.	16ddd-\JJ]	.
.	.	[4ff-\	.	8r	.	8r	.
.	.	.	.	8r	.	8r	.
=154	=154	=154	=154	=154	=154	=154	=154
8r	.	(4ff-\]	.	(8gg\	.	4ddd-\	.
8r	.	.	.	4bb-\)	.	.	.
*clefC4	*clefG2	*	*	*	*	*	*
(8g\	p	8ee-\)	.	.	.	8r	.
=155	=155	=155	=155	=155	=155	=155	=155
4a-\	.	4ee-\	.	4aa-\	.	4ccc\	.
16b-\LL	.	8r	.	8r	.	8r	.
16a-\JJ)	.	.	.	.	.	.	.
=156	=156	=156	=156	=156	=156	=156	=156
8g\	.	4.b-\	.	(4f-/	.	4.dd-\	.
8r	.	.	.	.	.	.	.
*clefF4	*clefF4	*	*	*	*	*	*
(8G\	.	.	.	8e-/)	.	.	.
=157	=157	=157	=157	=157	=157	=157	=157
4A-\	.	4a-\	.	4e-/	.	4cc\	.
16B-\LL	.	8r	.	8r	.	8r	.
16A-\JJ	.	.	.	.	.	.	.
=158	=158	=158	=158	=158	=158	=158	=158
(8G\)	.	(4F-/	.	4.B-/	.	4.d-/	.
16GG/LL	.	.	.	.	.	.	.
16EE-/	.	.	.	.	.	.	.
16FF/	.	8E-/)	.	.	.	.	.
16GG/JJ)	.	.	.	.	.	.	.
=159	=159	=159	=159	=159	=159	=159	=159
(4AA-/	<	4.E-/	<	4.A-/	<	4.c/	>
16BB-/LL	>	.	.	.	.	.	.
16AA-/JJ)	.	.	.	.	.	.	.
=160	=160	=160	=160	=160	=160	=160	=160
8AA-/L	.	8E-/L	.	8A-/L	.	8c/L	.
8AA-/J	.	8E-/J	.	8A-/J	.	8c/J	.
8r	.	8r	.	8r	.	8r	.
=161	=161	=161	=161	=161	=161	=161	=161
8AA-/L	.	8E-/L	.	8A-/L	.	8c-/L	.
8AA-/J	.	8E-/J	.	8A-/J	.	8c-/J	.
8r	.	8r	.	8r	.	8r	.
=162	=162	=162	=162	=162	=162	=162	=162
4.FF/	.	4.Dn/	.	4.A-/	.	4.B-/	.
=163	=163	=163	=163	=163	=163	=163	=163
4.EE-/	.	4.D-/	.	4.G/	.	4.e-/	.
=164	=164	=164	=164	=164	=164	=164	=164
8AA-/	p	8C/	p	8A-/	p	8e-/	p
8r	.	8r	.	8r	.	8r	.
8EE-/	.	8D-/	.	8G/	.	8e-/	.
=165	=165	=165	=165	=165	=165	=165	=165
8AA-/	.	8C/	.	8A-/	.	8e-/	.
8r	.	8r	.	8r	.	8r	.
8EE-/	.	8D-/	.	8G/	.	8e-/	.
=166	=166	=166	=166	=166	=166	=166	=166
8r	.	8r	.	8r	.	8r	.
8AA-/	.	8C/	.	8A-/	.	8e-/	.
8r	.	8r	.	8r	.	8r	.
=167	=167	=167	=167	=167	=167	=167	=167
8r	.	8r	.	8r	.	8r	.
8AA-/	.	8E-/	.	8c/	.	8a-/	.
8r	.	8r	.	8r	.	8r	.
=168	=168	=168	=168	=168	=168	=168	=168
8r	.	8r	.	8r	.	8r	.
8AA-/L	.	8E-/L	.	8c/L	.	8a-/L	.
8AA-/J	.	8E-/J	.	8c/J	.	8a-/J	.
=169	=169	=169	=169	=169	=169	=169	=169
8AA-/	.	8E-/	.	8c/	.	8a-/	.
8r	.	8r	.	8r	.	8r	.
8r	.	8r	.	8r	.	8r	.
==	==	==	==	==	==	==	==
*-	*-	*-	*-	*-	*-	*-	*-
!!!ONB: Scanned with SharpEye into MusicXML by Don Anthony 2006///
!!!ONB: Converted to Humdrum by Craig Sapp 2006/07/24/
